X:239
T:The Rose In The Heather
R:jig
M:6/8
L:1/8
K:Dmaj
FAF EFE|DFA BAF|ABd ede|fdB AFE|
~F3 ~E3|DFA BAF|AdB AFE|1 FDD D2E:|2 FDD D2e||
fdB ABd|faa afd|~g3 fed|Bee efg|
fdB ABd|f2a afa|bag fge|1 fdc d2e:|2 fdc d2A||

